packages/foundations/assets/icons/functional/images/logos/db_16.svg

<svg width="16" height="16" viewBox="0 0 16 16" fill="none" xmlns="http://www.w3.org/2000/svg">
<g clip-path="url(#clip0_185_1704)">
<path fill-rule="evenodd" clip-rule="evenodd" d="M13.3333 3.33334C14.0697 3.33334 14.6666 3.93031 14.6666 4.66669V11.324C14.6681 12.0625 14.0718 12.663 13.3333 12.6667H2.67331C1.93585 12.6667 1.33698 12.0708 1.33331 11.3334V4.66669C1.33331 4.31191 1.4747 3.97175 1.72619 3.72151C1.97768 3.47127 2.31854 3.33158 2.67331 3.33334H13.3333ZM13.3333 4.28002H2.67331C2.57262 4.28026 2.47643 4.32174 2.40714 4.3948C2.33786 4.46786 2.30154 4.56613 2.30665 4.66669V11.324C2.30303 11.4237 2.34002 11.5205 2.40914 11.5924C2.47826 11.6643 2.57359 11.7051 2.67331 11.7054H13.3333C13.4319 11.7033 13.5255 11.6617 13.5931 11.5901C13.6608 11.5184 13.6969 11.4225 13.6933 11.324V4.66669C13.6984 4.56727 13.663 4.47004 13.5951 4.39718C13.5273 4.32432 13.4328 4.28205 13.3333 4.28002ZM5.41064 4.94535C6.99064 4.94535 7.86399 5.93469 7.86399 7.97202C7.86664 9.74002 7.27331 11.04 5.41064 11.0547H3.16798V4.94535H5.41064ZM11.056 4.94802C12.7746 4.94802 12.8 6.30935 12.8 6.43602C12.7937 7.09244 12.3617 7.66866 11.7333 7.85869C12.8453 8.10002 13.0213 8.90802 13.0213 9.33735C13.0213 11.0547 11.2386 11.0547 10.6666 11.0547H8.50664V4.94802H11.056ZM4.93198 5.90669H4.63464V10.064H5.15598C5.93331 10.064 6.38531 9.44268 6.38531 8.09868C6.38531 6.86802 6.25198 5.90669 4.93198 5.90669ZM10.6013 8.49468H9.95998V10.064L10.6117 10.0638C10.8907 10.061 11.5493 10.015 11.5493 9.28002C11.5493 8.93868 11.3626 8.49468 10.6013 8.49468ZM10.4213 5.88935H9.95998V7.36402H10.54C11.052 7.36402 11.34 7.02535 11.34 6.62535C11.34 6.11869 11.0786 5.88935 10.4213 5.88935Z" fill="#1A1C1F"/>
</g>
<defs>
<clipPath id="clip0_185_1704">
<rect width="16" height="16" fill="white"/>
</clipPath>
</defs>
</svg>

<svg xmlns="http://www.w3.org/2000/svg" width="16" height="16" fill="none"><g clip-path="url(#a)"><path fill="#1A1C1F" fill-rule="evenodd" d="M13.333 3.333c.737 0 1.334.597 1.334 1.334v6.657a1.34 1.34 0 0 1-1.334 1.343H2.673a1.34 1.34 0 0 1-1.34-1.334V4.667a1.333 1.333 0 0 1 1.34-1.334zm0 .947H2.673a.37.37 0 0 0-.366.387v6.657a.37.37 0 0 0 .366.381h10.66a.37.37 0 0 0 .36-.381V4.667a.37.37 0 0 0-.36-.387m-7.922.665c1.58 0 2.453.99 2.453 3.027.003 1.768-.59 3.068-2.453 3.083H3.168v-6.11zm5.645.003c1.719 0 1.744 1.361 1.744 1.488a1.5 1.5 0 0 1-1.067 1.423c1.112.241 1.288 1.049 1.288 1.478 0 1.718-1.782 1.718-2.354 1.718h-2.16V4.948zm-6.124.959h-.297v4.157h.521c.777 0 1.23-.621 1.23-1.965 0-1.231-.134-2.192-1.454-2.192m5.67 2.588H9.96v1.569h.652c.279-.003.937-.049.937-.784 0-.341-.186-.785-.948-.785m-.18-2.606H9.96v1.475h.58c.512 0 .8-.339.8-.739 0-.506-.261-.736-.919-.736" clip-rule="evenodd"/></g><defs><clipPath id="a"><path fill="#fff" d="M0 0h16v16H0z"/></clipPath></defs></svg>
